X:1
T:The WEARY PUN' O' TOW.
L:1/8
Q:1/4=120
M:3/4
I:linebreak $
K:G
V:1 treble 
V:1
"^Slow." D2 | G>G G3 G | G3/2A/4B/4{B} A3 G | F>G{AB} c3 B |{B} A4 z B | G>G G3 G | G/A/B A3 G | %7
 F>G{GA} B3 A |$ G4 :: z d | B>c d3 G | c>d e3 G | F>G{AB} c3 B |{B} A4 (d3/2e/4f/4) | g>f e3 d | %15
 d>d{e} g3 G |$ F>G{GA} B3 A | G4 :| %18
